/* XPM */
static char * closeA_xpm[] = {
"46 60 4 1",
" 	c #FFFFFF",
".	c #000000",
"+	c #CCCCCC",
"@	c #050708",
"                                              ",
"                                              ",
"                                              ",
"                                              ",
"                                              ",
"                                              ",
"                                              ",
"                                              ",
"                                              ",
"                  .+      +.                  ",
"                  +@+    +@+                  ",
"                   +@+  +@+                   ",
"                    +@++@+                    ",
"                     +@@+                     ",
"                     +@@+                     ",
"                    +@++@+                    ",
"                   +@+  +@+                   ",
"                  +@+    +@+                  ",
"                  .+      +.                  ",
"                                              ",
"                                              ",
"                                              ",
"                                              ",
"                                              ",
"                                              ",
"                                              ",
"                                              ",
"                                              ",
"                                              ",
"                                              ",
"                                              ",
"                                              ",
"                                              ",
"                                              ",
"                                              ",
"                                              ",
"                                              ",
"                                              ",
"                                              ",
"                  .+      +.                  ",
"                  +@+    +@+                  ",
"                   +@+  +@+                   ",
"                    +@++@+                    ",
"                     +@@+                     ",
"                     +@@+                     ",
"                    +@++@+                    ",
"                   +@+  +@+                   ",
"                  +@+    +@+                  ",
"                  .+      +.                  ",
"                                              ",
"                                              ",
"                                              ",
"                                              ",
"                                              ",
"                                              ",
"                                              ",
"                                              ",
"                                              ",
"                                              ",
"                                              "};
