/* XPM */
static char * closeO_xpm[] = {
"46 60 7 1",
" 	c #FFFFFF",
".	c #E90014",
"+	c #FAD0D5",
"@	c #F26574",
"#	c #F26B78",
"$	c #FBE2E5",
"%	c #F7A4AB",
" .............................................",
" .............................................",
" .............................................",
" .............................................",
" .............................................",
" .............................................",
" .............................................",
" .............................................",
" .............................................",
" .................+@......@+..................",
" .................@ @....@ @..................",
" ..................@ @..@ @...................",
" ...................@ @@ @....................",
" ....................@  @.....................",
" ....................@  @.....................",
" ...................@ @@ @....................",
" ..................@ @..@ @...................",
" .................@ @....@ @..................",
" .................+@......@+..................",
" .............................................",
" .............................................",
" .............................................",
" .............................................",
" .............................................",
" .............................................",
" .............................................",
" .............................................",
" .............................................",
" .............................................",
"                                              ",
" #############################################",
" #############################################",
" #############################################",
" #############################################",
" #############################################",
" #############################################",
" #############################################",
" #############################################",
" #############################################",
" #################$%######%$##################",
" #################% %####% %##################",
" ##################% %##% %###################",
" ###################% %% %####################",
" ####################%  %#####################",
" ####################%  %#####################",
" ###################% %% %####################",
" ##################% %##% %###################",
" #################% %####% %##################",
" #################$%######%$##################",
" #############################################",
" #############################################",
" #############################################",
" #############################################",
" #############################################",
" #############################################",
" #############################################",
" #############################################",
" #############################################",
" #############################################",
"                                              "};
