/* XPM */
static char * close_xpm[] = {
"46 60 4 1",
" 	c #FFFFFF",
".	c #999999",
"+	c #EBEBEB",
"@	c #9B9C9C",
"                                              ",
"                                              ",
"                                              ",
"                                              ",
"                                              ",
"                                              ",
"                                              ",
"                                              ",
"                                              ",
"                  .+      +.                  ",
"                  +@+    +@+                  ",
"                   +@+  +@+                   ",
"                    +@++@+                    ",
"                     +@@+                     ",
"                     +@@+                     ",
"                    +@++@+                    ",
"                   +@+  +@+                   ",
"                  +@+    +@+                  ",
"                  .+      +.                  ",
"                                              ",
"                                              ",
"                                              ",
"                                              ",
"                                              ",
"                                              ",
"                                              ",
"                                              ",
"                                              ",
"                                              ",
"                                              ",
"                                              ",
"                                              ",
"                                              ",
"                                              ",
"                                              ",
"                                              ",
"                                              ",
"                                              ",
"                                              ",
"                  .+      +.                  ",
"                  +@+    +@+                  ",
"                   +@+  +@+                   ",
"                    +@++@+                    ",
"                     +@@+                     ",
"                     +@@+                     ",
"                    +@++@+                    ",
"                   +@+  +@+                   ",
"                  +@+    +@+                  ",
"                  .+      +.                  ",
"                                              ",
"                                              ",
"                                              ",
"                                              ",
"                                              ",
"                                              ",
"                                              ",
"                                              ",
"                                              ",
"                                              ",
"                                              "};
