/* XPM */
static char * maximize_xpm[] = {
"46 60 2 1",
" 	c #FFFFFF",
".	c #999999",
"                                              ",
"                                              ",
"                                              ",
"                                              ",
"                                              ",
"                                              ",
"                                              ",
"                                              ",
"                                              ",
"                  ..........                  ",
"                  .        .                  ",
"                  .        .                  ",
"                  .        .                  ",
"                  .        .                  ",
"                  .        .                  ",
"                  .        .                  ",
"                  .        .                  ",
"                  .        .                  ",
"                  ..........                  ",
"                                              ",
"                                              ",
"                                              ",
"                                              ",
"                                              ",
"                                              ",
"                                              ",
"                                              ",
"                                              ",
"                                              ",
"                                              ",
"                                              ",
"                                              ",
"                                              ",
"                                              ",
"                                              ",
"                                              ",
"                                              ",
"                                              ",
"                                              ",
"                  ..........                  ",
"                  .        .                  ",
"                  .        .                  ",
"                  .        .                  ",
"                  .        .                  ",
"                  .        .                  ",
"                  .        .                  ",
"                  .        .                  ",
"                  .        .                  ",
"                  ..........                  ",
"                                              ",
"                                              ",
"                                              ",
"                                              ",
"                                              ",
"                                              ",
"                                              ",
"                                              ",
"                                              ",
"                                              ",
"                                              "};
