/* XPM */
static char * maximizeA_xpm[] = {
"46 60 2 1",
" 	c #FFFFFF",
".	c #000000",
"                                              ",
"                                              ",
"                                              ",
"                                              ",
"                                              ",
"                                              ",
"                                              ",
"                                              ",
"                                              ",
"                  ..........                  ",
"                  .        .                  ",
"                  .        .                  ",
"                  .        .                  ",
"                  .        .                  ",
"                  .        .                  ",
"                  .        .                  ",
"                  .        .                  ",
"                  .        .                  ",
"                  ..........                  ",
"                                              ",
"                                              ",
"                                              ",
"                                              ",
"                                              ",
"                                              ",
"                                              ",
"                                              ",
"                                              ",
"                                              ",
"                                              ",
"                                              ",
"                                              ",
"                                              ",
"                                              ",
"                                              ",
"                                              ",
"                                              ",
"                                              ",
"                                              ",
"                  ..........                  ",
"                  .        .                  ",
"                  .        .                  ",
"                  .        .                  ",
"                  .        .                  ",
"                  .        .                  ",
"                  .        .                  ",
"                  .        .                  ",
"                  .        .                  ",
"                  ..........                  ",
"                                              ",
"                                              ",
"                                              ",
"                                              ",
"                                              ",
"                                              ",
"                                              ",
"                                              ",
"                                              ",
"                                              ",
"                                              "};
