/* XPM */
static char * restoreO_xpm[] = {
"46 60 4 1",
" 	c #FFFFFF",
".	c #E5E5E5",
"+	c #000000",
"@	c #CCCCCC",
" .............................................",
" .............................................",
" .............................................",
" .............................................",
" .............................................",
" .............................................",
" .............................................",
" .............................................",
" .............................................",
" ...................++++++++..................",
" ...................+......+..................",
" .................++++++++.+..................",
" .................+......+.+..................",
" .................+......+.+..................",
" .................+......+.+..................",
" .................+......+.+..................",
" .................+......+++..................",
" .................+......+....................",
" .................++++++++....................",
" .............................................",
" .............................................",
" .............................................",
" .............................................",
" .............................................",
" .............................................",
" .............................................",
" .............................................",
" .............................................",
" .............................................",
"                                              ",
" @@@@@@@@@@@@@@@@@@@@@@@@@@@@@@@@@@@@@@@@@@@@@",
" @@@@@@@@@@@@@@@@@@@@@@@@@@@@@@@@@@@@@@@@@@@@@",
" @@@@@@@@@@@@@@@@@@@@@@@@@@@@@@@@@@@@@@@@@@@@@",
" @@@@@@@@@@@@@@@@@@@@@@@@@@@@@@@@@@@@@@@@@@@@@",
" @@@@@@@@@@@@@@@@@@@@@@@@@@@@@@@@@@@@@@@@@@@@@",
" @@@@@@@@@@@@@@@@@@@@@@@@@@@@@@@@@@@@@@@@@@@@@",
" @@@@@@@@@@@@@@@@@@@@@@@@@@@@@@@@@@@@@@@@@@@@@",
" @@@@@@@@@@@@@@@@@@@@@@@@@@@@@@@@@@@@@@@@@@@@@",
" @@@@@@@@@@@@@@@@@@@@@@@@@@@@@@@@@@@@@@@@@@@@@",
" @@@@@@@@@@@@@@@@@@@++++++++@@@@@@@@@@@@@@@@@@",
" @@@@@@@@@@@@@@@@@@@+@@@@@@+@@@@@@@@@@@@@@@@@@",
" @@@@@@@@@@@@@@@@@++++++++@+@@@@@@@@@@@@@@@@@@",
" @@@@@@@@@@@@@@@@@+@@@@@@+@+@@@@@@@@@@@@@@@@@@",
" @@@@@@@@@@@@@@@@@+@@@@@@+@+@@@@@@@@@@@@@@@@@@",
" @@@@@@@@@@@@@@@@@+@@@@@@+@+@@@@@@@@@@@@@@@@@@",
" @@@@@@@@@@@@@@@@@+@@@@@@+@+@@@@@@@@@@@@@@@@@@",
" @@@@@@@@@@@@@@@@@+@@@@@@+++@@@@@@@@@@@@@@@@@@",
" @@@@@@@@@@@@@@@@@+@@@@@@+@@@@@@@@@@@@@@@@@@@@",
" @@@@@@@@@@@@@@@@@++++++++@@@@@@@@@@@@@@@@@@@@",
" @@@@@@@@@@@@@@@@@@@@@@@@@@@@@@@@@@@@@@@@@@@@@",
" @@@@@@@@@@@@@@@@@@@@@@@@@@@@@@@@@@@@@@@@@@@@@",
" @@@@@@@@@@@@@@@@@@@@@@@@@@@@@@@@@@@@@@@@@@@@@",
" @@@@@@@@@@@@@@@@@@@@@@@@@@@@@@@@@@@@@@@@@@@@@",
" @@@@@@@@@@@@@@@@@@@@@@@@@@@@@@@@@@@@@@@@@@@@@",
" @@@@@@@@@@@@@@@@@@@@@@@@@@@@@@@@@@@@@@@@@@@@@",
" @@@@@@@@@@@@@@@@@@@@@@@@@@@@@@@@@@@@@@@@@@@@@",
" @@@@@@@@@@@@@@@@@@@@@@@@@@@@@@@@@@@@@@@@@@@@@",
" @@@@@@@@@@@@@@@@@@@@@@@@@@@@@@@@@@@@@@@@@@@@@",
" @@@@@@@@@@@@@@@@@@@@@@@@@@@@@@@@@@@@@@@@@@@@@",
"                                              "};
