/* XPM */
static char * restoreA_xpm[] = {
"46 60 2 1",
" 	c #FFFFFF",
".	c #000000",
"                                              ",
"                                              ",
"                                              ",
"                                              ",
"                                              ",
"                                              ",
"                                              ",
"                                              ",
"                                              ",
"                    ........                  ",
"                    .      .                  ",
"                  ........ .                  ",
"                  .      . .                  ",
"                  .      . .                  ",
"                  .      . .                  ",
"                  .      . .                  ",
"                  .      ...                  ",
"                  .      .                    ",
"                  ........                    ",
"                                              ",
"                                              ",
"                                              ",
"                                              ",
"                                              ",
"                                              ",
"                                              ",
"                                              ",
"                                              ",
"                                              ",
"                                              ",
"                                              ",
"                                              ",
"                                              ",
"                                              ",
"                                              ",
"                                              ",
"                                              ",
"                                              ",
"                                              ",
"                    ........                  ",
"                    .      .                  ",
"                  ........ .                  ",
"                  .      . .                  ",
"                  .      . .                  ",
"                  .      . .                  ",
"                  .      . .                  ",
"                  .      ...                  ",
"                  .      .                    ",
"                  ........                    ",
"                                              ",
"                                              ",
"                                              ",
"                                              ",
"                                              ",
"                                              ",
"                                              ",
"                                              ",
"                                              ",
"                                              ",
"                                              "};
