/* XPM */
static char * collapse_xpm[] = {
"13 25 2 1",
" 	c #101010",
".	c #FFFFFF",
"             ",
"             ",
"             ",
"             ",
"             ",
"  ..  ..     ",
"   ..  ..    ",
"    ..  ..   ",
"   ..  ..    ",
"  ..  ..     ",
"             ",
"             ",
"             ",
"             ",
"             ",
"             ",
"             ",
"             ",
"             ",
"             ",
"             ",
"             ",
"             ",
"             ",
"             "};
