/* XPM */
static char * desktop_xpm[] = {
"20 16 50 1",
" 	c None",
".	c #0076C4",
"+	c #00A8FF",
"@	c #00A7FF",
"#	c #00A0FF",
"$	c #009FFF",
"%	c #00A1FF",
"&	c #0077C4",
"*	c #00A2FF",
"=	c #00A3FF",
"-	c #0078C4",
";	c #00A4FF",
">	c #00A5FF",
",	c #00A6FF",
"'	c #007AC4",
")	c #007BC4",
"!	c #00AAFF",
"~	c #007DC4",
"{	c #00A9FF",
"]	c #00ABFF",
"^	c #00ACFF",
"/	c #09ADFF",
"(	c #0080C3",
"_	c #00ADFF",
":	c #13AEFF",
"<	c #19AFFF",
"[	c #0081C3",
"}	c #17AEFF",
"|	c #1EB0FF",
"1	c #23B1FF",
"2	c #0E83C3",
"3	c #26B2FF",
"4	c #2BB4FF",
"5	c #1484C3",
"6	c #FEFEFE",
"7	c #0F669B",
"8	c #005A93",
"9	c #005590",
"0	c #005690",
"a	c #005790",
"b	c #005990",
"c	c #005A8F",
"d	c #005C8F",
"e	c #005D8F",
"f	c #0C5E8F",
"g	c #FFFFFF",
"h	c #17618F",
"i	c #1A85C3",
"j	c #1684C3",
"k	c #1F87C3",
"                    ",
"                    ",
"  ................  ",
"  .++++++++@#$##%&  ",
"  .++++++++%#%*==-  ",
"  .+++++++=#*=;>,'  ",
"  .++++++,#*;>,@+)  ",
"  .+++++@%*;,@+!!~  ",
"  .+++++**;,@{]^/(  ",
"  .++++;%=>@{]_:<[  ",
"  .+++,#*;,{]_}|12  ",
"  .++@##=>@!^:|345  ",
"  .67890abcdefghgi  ",
"  .....&-')~([2jik  ",
"                    ",
"                    "};
