/* XPM */
static char * expand_xpm[] = {
"13 25 29 1",
" 	c #EBEBEB",
".	c #F0F0F0",
"+	c #696969",
"@	c #666666",
"#	c #676767",
"$	c #EDEDED",
"%	c #686868",
"&	c #FFFFFF",
"*	c #E9E9E9",
"=	c #6A6A6A",
"-	c #E4E4E4",
";	c #6C6C6C",
">	c #E2E2E2",
",	c #E5E5E5",
"'	c #6E6E6E",
")	c #E1E1E1",
"!	c #E3E3E3",
"~	c #707070",
"{	c #717171",
"]	c #E7E7E7",
"^	c #737373",
"/	c #EAEAEA",
"(	c #757575",
"_	c #EFEFEF",
":	c #787878",
"<	c #F2F2F2",
"[	c #7A7A7A",
"}	c #F3F3F3",
"|	c #7E7E7E",
"             ",
".+++++++++++.",
".@@@@@@@@@@@.",
".@@@@@@@@@@@.",
".###########$",
".%&&%%&&%%%%*",
"$==&&==&&===-",
"*;;;&&;;&&;;>",
",''&&''&&''')",
"!~&&~~&&~~~~!",
"!~~~~~~~~~~~!",
"!~~~~~~~~~~~!",
"!~~~~~~~~~~~!",
"!~~~~~~~~~~~!",
"!~~~~~~~~~~~!",
"!~~~~~~~~~~~!",
"!~~~~~~~~~~~!",
"!~~~~~~~~~~~!",
"){{{{{{{{{{{]",
"!^^^^^^^^^^^/",
"](((((((((((_",
" :::::::::::<",
".[[[[[[[[[[[<",
"}|||||||||||}",
"             "};
