/* XPM */
static char * start_xpm[] = {
"32 25 10 1",
" 	c #101010",
".	c #2E2E2E",
"+	c #4C4C4C",
"@	c #6A6A6A",
"#	c #888888",
"$	c #B4B4B4",
"%	c #C3C3C3",
"&	c #FFFFFF",
"*	c #3D3D3D",
"=	c #A5A5A5",
"                                ",
"                                ",
"                                ",
"                                ",
"                .+@#$%&&        ",
"         *+#=% &&&&&&&&&        ",
"        &&&&&& &&&&&&&&&        ",
"        &&&&&& &&&&&&&&&        ",
"        &&&&&& &&&&&&&&&        ",
"        &&&&&& &&&&&&&&&        ",
"        &&&&&& &&&&&&&&&        ",
"                                ",
"        &&&&&& &&&&&&&&&        ",
"        &&&&&& &&&&&&&&&        ",
"        &&&&&& &&&&&&&&&        ",
"        &&&&&& &&&&&&&&&        ",
"        &&&&&& &&&&&&&&&        ",
"        &&&&&& &&&&&&&&&        ",
"         *+#=% &&&&&&&&&        ",
"                .+@#$%&&        ",
"                                ",
"                                ",
"                                ",
"                                ",
"                                "};
